packages/icons/src/svg/hierarchical-view.svg

<svg xmlns="http://www.w3.org/2000/svg" viewBox="0 0 16 16">
    <path d="M15.3690125.797180176L13.1430125.797180176C12.7920125.797180176 12.5050125 1.08418018 12.5050125 1.43618018L12.5050125 3.66118018C12.5050125 4.01318018 12.7920125 4.30018018 13.1430125 4.30018018L15.3690125 4.30018018C15.7210125 4.30018018 16.0080125 4.01318018 16.0080125 3.66118018L16.0080125 1.43618018C16.0080125 1.08418018 15.7210125.797180176 15.3690125.797180176M11.5008125 7.68138018L8.0968125 7.68138018 8.0968125 7.66638018 8.0958125 3.38238018C8.0968125 3.16938018 8.2688125 2.99738018 8.4818125 2.99738018L10.7878125 2.99738018 11.3298125 2.99738018C11.5428125 2.99738018 11.7158125 2.82438018 11.7158125 2.61138018 11.7158125 2.39838018 11.5428125 2.22538018 11.3298125 2.22538018L10.7878125 2.22538018 8.4818125 2.22538018C7.8428125 2.22538018 7.3248125 2.74338018 7.3248125 3.38238018L7.3248125 7.68138018 6.1138125 7.68138018C5.9008125 7.68138018 5.7288125 7.85438018 5.7288125 8.06738018 5.7288125 8.28038018 5.9008125 8.45238018 6.1138125 8.45238018L7.3248125 8.45238018 7.3248125 12.7513802C7.3248125 13.3903802 7.8428125 13.9083802 8.4818125 13.9083802L10.7878125 13.9083802 11.3298125 13.9083802C11.5428125 13.9083802 11.7158125 13.7363802 11.7158125 13.5223802 11.7158125 13.3093802 11.5428125 13.1373802 11.3298125 13.1373802L10.7878125 13.1373802 8.4818125 13.1373802C8.2688125 13.1363802 8.0968125 12.9643802 8.0958125 12.7513802L8.0968125 8.46738018 8.0968125 8.45238018 11.5008125 8.45238018C11.7128125 8.45238018 11.8858125 8.28038018 11.8858125 8.06738018 11.8858125 7.85438018 11.7128125 7.68138018 11.5008125 7.68138018M15.3690125 6.31518018L13.1430125 6.31518018C12.7920125 6.31518018 12.5050125 6.60318018 12.5050125 6.95418018L12.5050125 9.18018018C12.5050125 9.53118018 12.7920125 9.81818018 13.1430125 9.81818018L15.3690125 9.81818018C15.7210125 9.81818018 16.0080125 9.53118018 16.0080125 9.18018018L16.0080125 6.95418018C16.0080125 6.60318018 15.7210125 6.31518018 15.3690125 6.31518018M15.3690125 11.8342802L13.1430125 11.8342802C12.7920125 11.8342802 12.5050125 12.1212802 12.5050125 12.4732802L12.5050125 14.6982802C12.5050125 15.0492802 12.7920125 15.3372802 13.1430125 15.3372802L15.3690125 15.3372802C15.7210125 15.3372802 16.0080125 15.0492802 16.0080125 14.6982802L16.0080125 12.4732802C16.0080125 12.1212802 15.7210125 11.8342802 15.3690125 11.8342802M4.4788125 5.51198018L.6468125 5.51198018C.2948125 5.51198018.0078125 5.79898018.0078125 6.15098018L.0078125 9.98298018C.0078125 10.3339802.2948125 10.6219802.6468125 10.6219802L4.4788125 10.6219802C4.8308125 10.6219802 5.1178125 10.3339802 5.1178125 9.98298018L5.1178125 6.15098018C5.1178125 5.79898018 4.8308125 5.51198018 4.4788125 5.51198018"/>
</svg>

<svg xmlns="http://www.w3.org/2000/svg" viewBox="0 0 16 16">
	<path d="M15.369.797h-2.226a.64.64 0 0 0-.638.64V3.66a.64.64 0 0 0 .638.64h2.226a.64.64 0 0 0 .639-.64V1.436a.64.64 0 0 0-.639-.639m-3.868 6.884H8.097v-.015l-.001-4.284a.386.386 0 0 1 .386-.385h2.848a.386.386 0 0 0 0-.772H8.482c-.64 0-1.157.518-1.157 1.157v4.3H6.114a.385.385 0 0 0 0 .77h1.21v4.3c0 .638.519 1.156 1.158 1.156h2.848a.386.386 0 1 0 0-.77H8.482a.388.388 0 0 1-.386-.387V8.452h3.405a.385.385 0 0 0 0-.77m3.868-1.367h-2.226a.64.64 0 0 0-.638.64V9.18a.64.64 0 0 0 .638.638h2.226a.64.64 0 0 0 .639-.638V6.954a.64.64 0 0 0-.639-.639m0 5.52h-2.226a.64.64 0 0 0-.638.638v2.225a.64.64 0 0 0 .638.64h2.226a.64.64 0 0 0 .639-.64v-2.225a.64.64 0 0 0-.639-.639M4.479 5.512H.647a.64.64 0 0 0-.64.639v3.832a.64.64 0 0 0 .64.639h3.832a.64.64 0 0 0 .639-.639V6.151a.64.64 0 0 0-.64-.639"/>
</svg>
